; generated by PrusaSlicer 2.3.0+win64 on 2021-03-02 at 19:26:37 UTC


;
;

;
;
; 

; external perimeters extrusion width = 0.45mm
; perimeters extrusion width = 0.45mm
; infill extrusion width = 0.45mm
; solid infill extrusion width = 0.45mm
; top infill extrusion width = 0.40mm
; support material extrusion width = 0.35mm
; first layer extrusion width = 0.42mm

M73 P0 R76
M201 X1250 Y1250 Z400 E5000 ; sets maximum accelerations, mm/sec^2
M203 X180 Y180 Z12 E80 ; sets maximum feedrates, mm/sec
M204 P1250 R1250 T1250 ; sets acceleration (P, T) and retract acceleration (R), mm/sec^2
M205 X8.00 Y8.00 Z2.00 E10.00 ; sets the jerk limits, mm/sec
M205 S0 T0 ; sets the minimum extruding and travel feed rate, mm/sec
M107
;TYPE:Custom
G90 ; use absolute coordinates
M83 ; extruder relative mode
M104 S170 ; set extruder temp for bed leveling
M140 S60 ; set bed temp
M109 R170 ; wait for bed leveling temp
M190 S60 ; wait for bed temp
G28 ; home all without mesh bed level
G29 ; mesh bed leveling 
M104 S215 ; set extruder temp
G92 E0.0
G1 Y-2.0 X179 F2400
G1 Z3 F720
M109 S215 ; wait for extruder temp

; intro line
G1 X170 F1000
G1 Z0.2 F720
G1 X110.0 E8.0 F900
G1 X40.0 E10.0 F700
G92 E0.0

M221 S95 ; set flow
G21 ; set units to millimeters
G90 ; use absolute coordinates
M83 ; use relative distances for extrusion
M900 K0.2 ; Filament gcode LA 1.5
; ; Filament gcode LA 1.0
;LAYER_CHANGE
;Z:0.2
;HEIGHT:0.2
;BEFORE_LAYER_CHANGE
G92 E0.0
;0.2


G1 Z0.200 F9000.000
;AFTER_LAYER_CHANGE
;0.2
G1 E-3.20000 F4200.000
G1 Z0.400 F9000.000
G1 X66.471 Y46.266
G1 Z0.200
G1 E3.20000 F2400.000
M204 S800
;TYPE:Skirt
;WIDTH:0.42
G1 F1200.000
G1 X66.992 Y45.517 E0.02860
G1 X67.753 Y45.021 E0.02849
G1 X68.649 Y44.847 E0.02860
G1 X101.929 Y45.019 E1.04348
G1 X102.557 Y45.131 E0.02000
G1 X103.132 Y45.406 E0.02000
G1 X103.612 Y45.822 E0.01989
G1 X103.966 Y46.352 E0.02000
G1 X106.301 Y52.748 E0.21347
G1 X106.624 Y54.055 E0.04222
G1 X106.691 Y54.891 E0.02629
G1 X106.694 Y105.038 E1.57234
G1 X106.641 Y105.842 E0.02526
G1 X106.464 Y106.732 E0.02844
G1 X104.045 Y113.636 E0.22937
G1 X103.579 Y114.385 E0.02767
G1 X102.871 Y114.912 E0.02767
G1 X102.370 Y115.090 E0.01668
G1 X101.845 Y115.153 E0.01657
G1 X70.071 Y115.151 E0.99627
G1 X68.290 Y114.956 E0.05617
G1 X67.723 Y114.796 E0.01846
G1 X67.012 Y114.332 E0.02661
G1 X66.510 Y113.649 E0.02661
G1 X66.331 Y113.143 E0.01680
G1 X66.269 Y112.615 E0.01669
G1 X66.270 Y47.152 E2.05254
G1 X66.457 Y46.324 E0.02661
M204 S1250
G1 E-2.24000 F4200.000
;WIPE_START
G1 F7200.000
G1 X66.992 Y45.517 E-0.53651
G1 X67.560 Y45.147 E-0.37549
;WIPE_END
G1 E-0.04800 F4200.000
G1 Z0.400 F9000.000
G1 X102.264 Y43.630
G1 Z0.200
G1 E3.20000 F2400.000
M204 S800
G1 F1200.000
G1 X103.290 Y43.897 E0.03322
G1 X104.199 Y44.445 E0.03327
G1 X105.086 Y45.455 E0.04217
G1 X105.481 Y46.370 E0.03124
G1 X105.593 Y47.012 E0.02045
G1 X105.600 Y49.985 E0.09320
G1 X106.227 Y50.794 E0.03211
G1 X106.663 Y51.526 E0.02671
G1 X107.007 Y52.287 E0.02617
G1 X107.312 Y53.267 E0.03219
G1 X107.462 Y54.113 E0.02694
G1 X107.514 Y54.949 E0.02626
G1 X107.451 Y55.975 E0.03224
G1 X107.290 Y56.822 E0.02704
G1 X107.027 Y57.663 E0.02762
G1 X106.880 Y57.989 E0.01121
M204 S1250
G1 X106.503 Y58.743 F9000.000
M204 S800
G1 F1200.000
G1 X106.215 Y59.223 E0.01756
G1 X105.620 Y60.000 E0.03068
G1 X106.227 Y60.795 E0.03136
G1 X106.503 Y61.258 E0.01691
M204 S1250
G1 X106.880 Y62.010 F9000.000
M204 S800
G1 F1200.000
G1 X107.024 Y62.329 E0.01099
G1 X107.282 Y63.148 E0.02691
G1 X107.452 Y64.038 E0.02842
G1 X107.514 Y64.971 E0.02931
G1 X107.454 Y65.950 E0.03075
G1 X107.297 Y66.793 E0.02690
G1 X107.046 Y67.611 E0.02684
G1 X106.881 Y67.988 E0.01290
M204 S1250
G1 X106.503 Y68.738 F9000.000
M204 S800
G1 F1200.000
G1 X106.232 Y69.199 E0.01678
G1 X105.620 Y70.000 E0.03160
G1 X106.227 Y70.793 E0.03131
G1 X106.504 Y71.257 E0.01693
M204 S1250
G1 X106.881 Y72.006 F9000.000
M204 S800
G1 F1200.000
G1 X106.998 Y72.263 E0.00888
G1 X107.281 Y73.144 E0.02900
G1 X107.452 Y74.037 E0.02849
G1 X107.514 Y74.995 E0.03011
G1 X107.454 Y75.949 E0.02999
G1 X107.292 Y76.813 E0.02757
G1 X107.038 Y77.631 E0.02685
G1 X106.881 Y77.987 E0.01221
M204 S1250
G1 X106.504 Y78.739 F9000.000
M204 S800
G1 F1200.000
G1 X106.232 Y79.199 E0.01677
G1 X105.621 Y79.999 E0.03157
G1 X106.235 Y80.806 E0.03178
G1 X106.504 Y81.260 E0.01654
M204 S1250
G1 X106.881 Y82.013 F9000.000
M204 S800
G1 F1200.000
G1 X107.030 Y82.346 E0.01144
G1 X107.316 Y83.283 E0.03074
G1 X107.466 Y84.150 E0.02757
G1 X107.514 Y84.999 E0.02667
G1 X107.442 Y86.011 E0.03181
G1 X107.285 Y86.843 E0.02656
G1 X107.036 Y87.638 E0.02612
G1 X106.881 Y87.985 E0.01191
M204 S1250
G1 X106.504 Y88.739 F9000.000
M204 S800
G1 F1200.000
G1 X106.228 Y89.204 E0.01694
G1 X105.618 Y89.999 E0.03142
G1 X106.184 Y90.731 E0.02899
G1 X106.504 Y91.261 E0.01943
M204 S1250
G1 X106.882 Y92.015 F9000.000
M204 S800
G1 F1200.000
G1 X107.026 Y92.335 E0.01100
G1 X107.297 Y93.207 E0.02864
G1 X107.457 Y94.078 E0.02777
G1 X107.514 Y94.983 E0.02842
G1 X107.455 Y95.938 E0.03001
G1 X107.282 Y96.853 E0.02921
G1 X107.015 Y97.694 E0.02766
G1 X106.882 Y97.989 E0.01014
M204 S1250
G1 X106.505 Y98.739 F9000.000
M204 S800
G1 F1200.000
G1 X106.210 Y99.231 E0.01798
G1 X105.620 Y99.996 E0.03031
G1 X106.275 Y100.873 E0.03430
G1 X106.505 Y101.264 E0.01424
M204 S1250
G1 X106.882 Y102.012 F9000.000
M204 S800
G1 F1200.000
G1 X107.032 Y102.351 E0.01162
G1 X107.321 Y103.305 E0.03127
G1 X107.468 Y104.172 E0.02757
G1 X107.514 Y105.072 E0.02825
G1 X107.459 Y105.907 E0.02623
G1 X107.313 Y106.730 E0.02622
G1 X107.021 Y107.678 E0.03110
G1 X106.671 Y108.459 E0.02683
G1 X106.230 Y109.201 E0.02707
G1 X105.594 Y110.022 E0.03256
G1 X105.565 Y113.437 E0.10708
G1 X105.276 Y114.347 E0.02993
G1 X104.809 Y115.051 E0.02650
G1 X104.059 Y115.753 E0.03218
G1 X103.062 Y116.239 E0.03479
G1 X102.343 Y116.359 E0.02288
G1 X101.616 Y116.349 E0.02279
G1 X101.388 Y116.377 E0.00721
G1 X96.999 Y116.377 E0.13760
G1 X96.339 Y116.349 E0.02070
G1 X96.109 Y116.377 E0.00729
G1 X70.604 Y116.377 E0.79969
M73 P0 R75
G1 X69.944 Y116.349 E0.02070
G1 X69.713 Y116.377 E0.00729
G1 X68.313 Y116.377 E0.04391
G1 X67.195 Y116.106 E0.03604
G1 X66.245 Y115.535 E0.03477
G1 X65.499 Y114.715 E0.03475
G1 X64.998 Y113.642 E0.03714
G1 X64.875 Y112.901 E0.02355
G1 X64.875 Y46.864 E2.07056
G1 X64.995 Y46.173 E0.02197
G1 X65.410 Y45.286 E0.03070
G1 X66.351 Y44.292 E0.04293
G1 X67.151 Y43.853 E0.02862
G1 X68.003 Y43.649 E0.02744
G1 X68.853 Y43.652 E0.02666
G1 X69.087 Y43.623 E0.00741
G1 X102.264 Y43.630 E1.04024
M204 S1250
G1 E-2.24000 F4200.000
;WIPE_START
G1 F7200.000
G1 X100.619 Y43.630 E-0.91200
;WIPE_END
G1 E-0.04800 F4200.000
G1 Z0.400 F9000.000
G1 X105.222 Y49.242
G1 Z0.200
G1 E3.20000 F2400.000
M204 S800
G1 F1200.000
G1 X105.219 Y47.058 E0.06848
G1 X105.126 Y46.497 E0.01781
G1 X104.752 Y45.632 E0.02956
G1 X103.977 Y44.751 E0.03678
G1 X103.165 Y44.254 E0.02986
G1 X102.239 Y44.007 E0.03004
G1 X69.100 Y44.000 E1.03905
M204 S1250
M204 S800
G1 X68.877 Y44.029 E0.00705
G1 X68.025 Y44.026 E0.02672
G1 X67.267 Y44.212 E0.02447
G1 X66.561 Y44.607 E0.02537
G1 X65.739 Y45.474 E0.03746
G1 X65.348 Y46.309 E0.02892
G1 X65.252 Y46.879 E0.01810
G1 X65.252 Y112.887 E2.06964
G1 X65.351 Y113.510 E0.01977
G1 X65.798 Y114.484 E0.03359
G1 X66.504 Y115.260 E0.03290
G1 X67.362 Y115.766 E0.03124
G1 X68.334 Y116.000 E0.03136
G1 X69.700 Y116.000 E0.04282
G1 X69.919 Y115.972 E0.00692
G1 X70.429 Y115.979 E0.01599
G1 X70.620 Y116.000 E0.00602
G1 X96.096 Y116.000 E0.79878
M73 P1 R75
G1 X96.315 Y115.972 E0.00692
G1 X96.825 Y115.979 E0.01599
G1 X97.016 Y116.000 E0.00602
G1 X101.375 Y116.000 E0.13669
G1 X101.594 Y115.972 E0.00692
G1 X102.332 Y115.982 E0.02315
G1 X102.925 Y115.887 E0.01883
G1 X103.823 Y115.457 E0.03122
G1 X104.536 Y114.791 E0.03057
G1 X104.926 Y114.204 E0.02210
G1 X105.189 Y113.404 E0.02641
G1 X105.210 Y110.881 E0.07910
M204 S1250
G1 E-2.24000 F4200.000
;WIPE_START
G1 F7200.000
G1 X105.196 Y112.527 E-0.91200
;WIPE_END
G1 E-0.04800 F4200.000
G1 Z0.400 F9000.000
G1 X105.833 Y109.101
G1 Z0.200
G1 E3.20000 F2400.000
M204 S800
G1 F1200.000
G1 X105.912 Y108.999 E0.00403
G1 X106.331 Y108.295 E0.02570
G1 X106.672 Y107.534 E0.02612
G1 X106.943 Y106.652 E0.02895
G1 X107.084 Y105.871 E0.02487
G1 X107.137 Y105.058 E0.02554
G1 X107.092 Y104.203 E0.02686
G1 X106.951 Y103.381 E0.02615
G1 X106.882 Y103.154 E0.00744
M204 S1250
G1 X106.505 Y102.090 F9000.000
M204 S800
G1 F1200.000
G1 X106.354 Y101.749 E0.01167
G1 X105.955 Y101.073 E0.02463
G1 X105.442 Y100.382 E0.02697
G1 X105.223 Y100.152 E0.00998
G1 X105.223 Y99.851 E0.00942
G1 X105.377 Y99.694 E0.00688
G1 X105.893 Y99.027 E0.02646
G1 X106.323 Y98.310 E0.02622
G1 X106.505 Y97.909 E0.01379
M204 S1250
G1 X106.882 Y96.868 F9000.000
M204 S800
G1 F1200.000
G1 X106.919 Y96.750 E0.00389
G1 X107.080 Y95.903 E0.02703
G1 X107.137 Y94.971 E0.02927
G1 X107.085 Y94.135 E0.02628
G1 X106.934 Y93.307 E0.02636
G1 X106.882 Y93.140 E0.00551
M204 S1250
G1 X106.505 Y92.094 F9000.000
M204 S800
G1 F1200.000
G1 X106.323 Y91.689 E0.01393
G1 X105.867 Y90.935 E0.02761
G1 X105.394 Y90.325 E0.02420
G1 X105.223 Y90.151 E0.00766
G1 X105.223 Y89.851 E0.00942
G1 X105.379 Y89.692 E0.00698
G1 X105.910 Y89.001 E0.02732
G1 X106.339 Y88.279 E0.02635
G1 X106.504 Y87.908 E0.01272
M204 S1250
G1 X106.881 Y86.870 F9000.000
M204 S800
G1 F1200.000
G1 X106.922 Y86.741 E0.00421
G1 X107.069 Y85.952 E0.02517
G1 X107.137 Y84.985 E0.03041
G1 X107.090 Y84.183 E0.02519
G1 X106.946 Y83.360 E0.02618
G1 X106.881 Y83.148 E0.00697
M204 S1250
G1 X106.504 Y82.090 F9000.000
M204 S800
G1 F1200.000
G1 X106.341 Y81.723 E0.01257
G1 X105.916 Y81.008 E0.02609
G1 X105.409 Y80.344 E0.02620
G1 X105.223 Y80.148 E0.00847
G1 X105.223 Y79.848 E0.00939
G1 X105.399 Y79.669 E0.00787
G1 X105.913 Y78.997 E0.02654
G1 X106.351 Y78.256 E0.02700
G1 X106.504 Y77.910 E0.01186
M204 S1250
G1 X106.881 Y76.867 F9000.000
M204 S800
G1 F1200.000
G1 X106.929 Y76.713 E0.00508
G1 X107.079 Y75.914 E0.02548
G1 X107.137 Y74.983 E0.02924
G1 X107.077 Y74.073 E0.02859
G1 X106.881 Y73.125 E0.03036
M204 S1250
G1 X106.504 Y72.088 F9000.000
M204 S800
G1 F1200.000
G1 X106.315 Y71.673 E0.01427
G1 X105.909 Y70.997 E0.02474
G1 X105.397 Y70.329 E0.02638
G1 X105.223 Y70.151 E0.00781
G1 X105.223 Y69.848 E0.00950
G1 X105.399 Y69.669 E0.00787
G1 X105.913 Y68.997 E0.02654
G1 X106.351 Y68.256 E0.02700
G1 X106.503 Y67.911 E0.01183
M204 S1250
G1 X106.880 Y66.869 F9000.000
M204 S800
G1 F1200.000
G1 X106.929 Y66.713 E0.00513
G1 X107.079 Y65.914 E0.02548
G1 X107.137 Y64.983 E0.02924
G1 X107.077 Y64.074 E0.02856
G1 X106.920 Y63.251 E0.02629
G1 X106.880 Y63.127 E0.00408
M204 S1250
G1 X106.503 Y62.089 F9000.000
M204 S800
G1 F1200.000
G1 X106.325 Y61.694 E0.01357
G1 X105.909 Y60.997 E0.02545
G1 X105.397 Y60.329 E0.02640
G1 X105.223 Y60.151 E0.00781
G1 X105.223 Y59.849 E0.00950
G1 X105.397 Y59.671 E0.00781
G1 X105.898 Y59.020 E0.02574
G1 X106.327 Y58.302 E0.02624
G1 X106.503 Y57.911 E0.01343
M204 S1250
G1 X106.880 Y56.873 F9000.000
M204 S800
G1 F1200.000
G1 X106.922 Y56.741 E0.00434
G1 X107.078 Y55.916 E0.02631
G1 X107.137 Y54.961 E0.03002
G1 X107.086 Y54.147 E0.02555
G1 X106.943 Y53.345 E0.02555
G1 X106.651 Y52.411 E0.03070
G1 X106.324 Y51.692 E0.02474
G1 X105.909 Y50.997 E0.02540
G1 X105.820 Y50.881 E0.00456
M204 S1250
G1 X105.485 Y51.062 F9000.000
M204 S800
G1 F1200.000
G1 X105.106 Y50.569 E0.01949
G1 X104.846 Y50.308 E0.01155
G1 X104.845 Y49.310 E0.03130
M204 S1250
G1 X104.845 Y48.209 F9000.000
M204 S800
G1 F1200.000
G1 X104.844 Y47.100 E0.03477
G1 X104.770 Y46.624 E0.01512
G1 X104.417 Y45.809 E0.02784
G1 X103.754 Y45.056 E0.03146
G1 X103.038 Y44.610 E0.02647
G1 X102.213 Y44.384 E0.02680
M204 S1250
M204 S800
G1 X69.114 Y44.377 E1.03781
G1 X68.903 Y44.406 E0.00667
G1 X68.046 Y44.404 E0.02685
G1 X67.428 Y44.554 E0.01994
G1 X66.770 Y44.922 E0.02367
G1 X66.067 Y45.661 E0.03196
G1 X65.701 Y46.445 E0.02711
G1 X65.629 Y46.893 E0.01424
G1 X65.629 Y112.873 E2.06877
G1 X65.706 Y113.380 E0.01607
G1 X66.099 Y114.255 E0.03007
G1 X66.721 Y114.950 E0.02926
G1 X67.529 Y115.427 E0.02940
G1 X68.356 Y115.623 E0.02665
G1 X69.687 Y115.623 E0.04172
G1 X69.895 Y115.594 E0.00661
G1 X70.454 Y115.602 E0.01752
G1 X70.631 Y115.623 E0.00560
G1 X96.082 Y115.623 E0.79799
G1 X96.291 Y115.594 E0.00661
G1 X96.850 Y115.602 E0.01752
G1 X97.027 Y115.623 E0.00560
G1 X101.361 Y115.623 E0.13590
G1 X101.570 Y115.594 E0.00661
G1 X102.323 Y115.605 E0.02360
G1 X102.788 Y115.534 E0.01476
G1 X103.633 Y115.130 E0.02936
G1 X104.259 Y114.534 E0.02710
G1 X104.597 Y114.018 E0.01933
G1 X104.812 Y113.371 E0.02138
G1 X104.823 Y111.984 E0.04349
M204 S1250
G1 X104.833 Y110.816 F9000.000
M204 S800
G1 F1200.000
G1 X104.842 Y109.704 E0.03486
G1 X105.093 Y109.445 E0.01127
G1 X105.496 Y108.922 E0.02073
M204 S1250
G1 E-2.24000 F4200.000
;WIPE_START
G1 F7200.000
G1 X105.093 Y109.445 E-0.36640
G1 X104.842 Y109.704 E-0.19927
G1 X104.837 Y110.329 E-0.34633
;WIPE_END
G1 E-0.04800 F4200.000
G1 Z0.400 F9000.000
G1 X106.505 Y103.205
G1 Z0.200
G1 E3.20000 F2400.000
M204 S800
G1 F1200.000
G1 X106.325 Y102.614 E0.01939
G1 X106.024 Y101.931 E0.02338
G1 X105.635 Y101.273 E0.02396
G1 X105.147 Y100.618 E0.02564
G1 X104.846 Y100.304 E0.01364
G1 X104.846 Y99.694 E0.01913
G1 X105.086 Y99.453 E0.01066
G1 X105.588 Y98.805 E0.02570
G1 X105.994 Y98.126 E0.02482
G1 X106.311 Y97.424 E0.02413
G1 X106.505 Y96.810 E0.02019
M204 S1250
G1 E-2.24000 F4200.000
;WIPE_START
G1 F7200.000
G1 X106.311 Y97.424 E-0.35683
G1 X105.994 Y98.126 E-0.42645
G1 X105.875 Y98.325 E-0.12872
;WIPE_END
G1 E-0.04800 F4200.000
G1 Z0.400 F9000.000
G1 X106.505 Y93.197
G1 Z0.200
G1 E3.20000 F2400.000
M204 S800
G1 F1200.000
G1 X106.320 Y92.601 E0.01954
G1 X105.984 Y91.854 E0.02569
G1 X105.562 Y91.158 E0.02552
G1 X105.104 Y90.566 E0.02346
G1 X104.846 Y90.308 E0.01145
G1 X104.846 Y89.694 E0.01927
G1 X105.088 Y89.451 E0.01075
G1 X105.592 Y88.798 E0.02586
G1 X106.000 Y88.115 E0.02495
G1 X106.323 Y87.392 E0.02482
G1 X106.504 Y86.812 E0.01905
M204 S1250
G1 E-2.24000 F4200.000
;WIPE_START
G1 F7200.000
G1 X106.323 Y87.392 E-0.33678
G1 X106.000 Y88.115 E-0.43871
G1 X105.874 Y88.326 E-0.13651
;WIPE_END
G1 E-0.04800 F4200.000
G1 Z0.400 F9000.000
G1 X106.504 Y83.204
G1 Z0.200
G1 E3.20000 F2400.000
M204 S800
G1 F1200.000
G1 X106.316 Y82.589 E0.02017
G1 X106.001 Y81.888 E0.02411
G1 X105.610 Y81.228 E0.02405
G1 X105.116 Y80.582 E0.02549
G1 X104.846 Y80.301 E0.01223
G1 X104.846 Y79.692 E0.01910
G1 X105.107 Y79.430 E0.01161
G1 X105.607 Y78.777 E0.02576
G1 X106.021 Y78.074 E0.02557
G1 X106.339 Y77.348 E0.02486
G1 X106.504 Y76.812 E0.01760
M204 S1250
G1 E-2.24000 F4200.000
;WIPE_START
G1 F7200.000
G1 X106.339 Y77.348 E-0.31106
G1 X106.021 Y78.074 E-0.43933
G1 X105.873 Y78.326 E-0.16162
;WIPE_END
G1 E-0.04800 F4200.000
G1 Z0.400 F9000.000
G1 X106.504 Y73.184
G1 Z0.200
G1 E3.20000 F2400.000
M204 S800
G1 F1200.000
G1 X106.303 Y72.556 E0.02067
G1 X105.986 Y71.858 E0.02402
G1 X105.591 Y71.200 E0.02405
G1 X105.106 Y70.569 E0.02495
G1 X104.846 Y70.308 E0.01156
G1 X104.846 Y69.692 E0.01933
G1 X105.107 Y69.430 E0.01161
G1 X105.607 Y68.777 E0.02576
G1 X106.021 Y68.074 E0.02557
G1 X106.339 Y67.348 E0.02486
G1 X106.503 Y66.813 E0.01755
M204 S1250
G1 E-2.24000 F4200.000
;WIPE_START
G1 F7200.000
G1 X106.339 Y67.348 E-0.31022
G1 X106.021 Y68.074 E-0.43933
G1 X105.872 Y68.327 E-0.16245
;WIPE_END
G1 E-0.04800 F4200.000
G1 Z0.400 F9000.000
G1 X106.503 Y63.184
G1 Z0.200
G1 E3.20000 F2400.000
M204 S800
G1 F1200.000
G1 X106.319 Y62.598 E0.01927
G1 X105.996 Y61.878 E0.02473
G1 X105.591 Y61.200 E0.02475
G1 X105.106 Y60.569 E0.02496
G1 X104.846 Y60.308 E0.01156
G1 X104.846 Y59.692 E0.01933
G1 X105.106 Y59.431 E0.01156
G1 X105.592 Y58.799 E0.02498
G1 X105.998 Y58.118 E0.02485
G1 X106.314 Y57.414 E0.02419
G1 X106.503 Y56.818 E0.01960
M204 S1250
G1 E-2.24000 F4200.000
;WIPE_START
G1 F7200.000
G1 X106.314 Y57.414 E-0.34643
G1 X105.998 Y58.118 E-0.42760
G1 X105.870 Y58.332 E-0.13797
;WIPE_END
G1 E-0.04800 F4200.000
G1 Z0.400 F9000.000
G1 X104.469 Y48.279
G1 Z0.200
G1 E3.20000 F2400.000
M204 S800
G1 F1200.000
G1 X104.469 Y50.466 E0.06857
G1 X104.816 Y50.810 E0.01531
G1 X105.274 Y51.404 E0.02353
G1 X105.647 Y52.024 E0.02269
