; generated by PrusaSlicer 2.3.0+win64 on 2021-03-27 at 16:59:51 UTC


;
;

;
;
; 

; external perimeters extrusion width = 0.45mm
; perimeters extrusion width = 0.45mm
; infill extrusion width = 0.45mm
; solid infill extrusion width = 0.45mm
; top infill extrusion width = 0.40mm
; first layer extrusion width = 0.42mm

M73 P0 R49
M201 X1250 Y1250 Z400 E5000 ; sets maximum accelerations, mm/sec^2
M203 X180 Y180 Z12 E80 ; sets maximum feedrates, mm/sec
M204 P1250 R1250 T1250 ; sets acceleration (P, T) and retract acceleration (R), mm/sec^2
M205 X8.00 Y8.00 Z2.00 E10.00 ; sets the jerk limits, mm/sec
M205 S0 T0 ; sets the minimum extruding and travel feed rate, mm/sec
M107
;TYPE:Custom
G90 ; use absolute coordinates
M83 ; extruder relative mode
M104 S170 ; set extruder temp for bed leveling
M140 S60 ; set bed temp
M109 R170 ; wait for bed leveling temp
M190 S60 ; wait for bed temp
G28 ; home all without mesh bed level
G29 ; mesh bed leveling 
M104 S215 ; set extruder temp
G92 E0.0
G1 Y-2.0 X179 F2400
G1 Z3 F720
M109 S215 ; wait for extruder temp

; intro line
G1 X170 F1000
G1 Z0.2 F720
G1 X110.0 E8.0 F900
G1 X40.0 E10.0 F700
G92 E0.0

M221 S95 ; set flow
G21 ; set units to millimeters
G90 ; use absolute coordinates
M83 ; use relative distances for extrusion
M900 K0.2 ; Filament gcode LA 1.5
; ; Filament gcode LA 1.0
;LAYER_CHANGE
;Z:0.2
;HEIGHT:0.2
;BEFORE_LAYER_CHANGE
G92 E0.0
;0.2


G1 Z0.200 F9000.000
;AFTER_LAYER_CHANGE
;0.2
G1 E-3.20000 F4200.000
G1 Z0.400 F9000.000
G1 X70.426 Y70.054
G1 Z0.200
G1 E3.20000 F2400.000
M204 S800
;TYPE:Skirt
;WIDTH:0.42
G1 F1200.000
G1 X71.065 Y69.531 E0.02587
G1 X71.839 Y69.048 E0.02861
G1 X72.579 Y68.710 E0.02552
G1 X74.147 Y68.315 E0.05071
G1 X74.994 Y68.260 E0.02659
G1 X99.504 Y68.260 E0.76851
G1 X100.866 Y68.316 E0.04276
G1 X102.301 Y68.666 E0.04631
G1 X103.230 Y69.086 E0.03195
G1 X104.407 Y69.901 E0.04489
G1 X105.126 Y70.628 E0.03206
G1 X105.963 Y71.859 E0.04667
G1 X106.505 Y73.249 E0.04678
G1 X106.693 Y74.204 E0.03052
G1 X106.740 Y125.019 E1.59328
G1 X106.570 Y126.495 E0.04658
G1 X106.264 Y127.483 E0.03242
G1 X105.948 Y128.170 E0.02373
G1 X105.465 Y128.940 E0.02849
G1 X104.571 Y129.949 E0.04226
G1 X103.929 Y130.473 E0.02599
G1 X103.158 Y130.954 E0.02849
G1 X102.407 Y131.295 E0.02588
G1 X101.612 Y131.544 E0.02611
G1 X100.792 Y131.693 E0.02612
G1 X74.965 Y131.740 E0.80980
G1 X73.501 Y131.569 E0.04620
G1 X72.517 Y131.264 E0.03230
G1 X71.830 Y130.948 E0.02373
G1 X71.056 Y130.462 E0.02866
G1 X70.048 Y129.569 E0.04222
G1 X69.513 Y128.911 E0.02658
G1 X69.041 Y128.148 E0.02814
G1 X68.696 Y127.385 E0.02623
G1 X68.449 Y126.586 E0.02623
G1 X68.297 Y125.679 E0.02885
G1 X68.260 Y74.981 E1.58959
G1 X68.430 Y73.505 E0.04658
G1 X68.736 Y72.517 E0.03242
G1 X69.052 Y71.830 E0.02373
G1 X69.535 Y71.060 E0.02849
G1 X70.386 Y70.098 E0.04026
M204 S1250
G1 E-2.24000 F4200.000
;WIPE_START
G1 F7200.000
G1 X71.065 Y69.531 E-0.49002
G1 X71.710 Y69.128 E-0.42198
;WIPE_END
G1 E-0.04800 F4200.000
G1 Z0.400 F9000.000
G1 X102.594 Y80.001
G1 Z0.200
G1 E3.20000 F2400.000
M204 S800
G1 F1200.000
G1 X103.183 Y80.358 E0.02159
G1 X103.703 Y80.761 E0.02064
G1 X104.205 Y81.259 E0.02216
G1 X104.626 Y81.793 E0.02132
G1 X104.978 Y82.372 E0.02126
G1 X105.268 Y83.017 E0.02215
G1 X105.469 Y83.669 E0.02141
G1 X105.592 Y84.358 E0.02194
G1 X105.629 Y85.010 E0.02048
G1 X105.592 Y85.642 E0.01985
G1 X105.474 Y86.310 E0.02126
G1 X105.268 Y86.984 E0.02211
G1 X104.978 Y87.628 E0.02215
G1 X104.624 Y88.209 E0.02132
G1 X104.206 Y88.741 E0.02123
G1 X103.741 Y89.206 E0.02060
G1 X103.189 Y89.639 E0.02201
G1 X102.594 Y90.001 E0.02184
G1 X103.183 Y90.358 E0.02160
G1 X103.686 Y90.746 E0.01991
G1 X104.221 Y91.276 E0.02361
G1 X104.626 Y91.793 E0.02060
G1 X104.967 Y92.352 E0.02053
G1 X105.259 Y92.994 E0.02213
G1 X105.464 Y93.646 E0.02142
G1 X105.589 Y94.335 E0.02196
G1 X105.629 Y94.987 E0.02049
G1 X105.592 Y95.642 E0.02055
G1 X105.474 Y96.310 E0.02126
G1 X105.259 Y97.005 E0.02284
G1 X104.967 Y97.648 E0.02213
G1 X104.612 Y98.227 E0.02130
G1 X104.206 Y98.741 E0.02055
G1 X103.758 Y99.191 E0.01989
G1 X103.188 Y99.639 E0.02273
G1 X102.593 Y100.002 E0.02188
G1 X103.184 Y100.358 E0.02163
G1 X103.741 Y100.794 E0.02219
G1 X104.238 Y101.295 E0.02214
G1 X104.639 Y101.812 E0.02049
G1 X104.978 Y102.372 E0.02055
G1 X105.268 Y103.017 E0.02215
G1 X105.464 Y103.647 E0.02069
G1 X105.587 Y104.313 E0.02126
G1 X105.629 Y105.010 E0.02189
G1 X105.590 Y105.663 E0.02052
G1 X105.480 Y106.287 E0.01985
G1 X105.276 Y106.961 E0.02208
G1 X104.989 Y107.606 E0.02216
G1 X104.638 Y108.189 E0.02133
G1 X104.205 Y108.742 E0.02202
G1 X103.723 Y109.222 E0.02133
G1 X103.207 Y109.626 E0.02056
G1 X102.594 Y110.001 E0.02253
G1 X103.164 Y110.345 E0.02088
G1 X103.722 Y110.778 E0.02214
G1 X104.222 Y111.277 E0.02216
G1 X104.627 Y111.794 E0.02058
G1 X104.978 Y112.373 E0.02123
G1 X105.268 Y113.016 E0.02212
G1 X105.475 Y113.691 E0.02214
G1 X105.595 Y114.382 E0.02199
G1 X105.629 Y115.013 E0.01979
G1 X105.592 Y115.643 E0.01981
G1 X105.469 Y116.332 E0.02195
G1 X105.267 Y116.985 E0.02141
G1 X104.977 Y117.629 E0.02215
G1 X104.624 Y118.210 E0.02132
G1 X104.204 Y118.744 E0.02130
G1 X103.722 Y119.223 E0.02130
G1 X103.188 Y119.639 E0.02124
G1 X102.594 Y120.001 E0.02180
G1 X103.183 Y120.358 E0.02160
G1 X103.686 Y120.746 E0.01992
G1 X104.222 Y121.277 E0.02365
G1 X104.627 Y121.794 E0.02058
G1 X104.968 Y122.353 E0.02053
G1 X105.277 Y123.041 E0.02365
G1 X105.475 Y123.694 E0.02140
G1 X105.592 Y124.361 E0.02124
G1 X105.629 Y125.035 E0.02118
G1 X105.584 Y125.711 E0.02123
G1 X105.463 Y126.354 E0.02053
G1 X105.260 Y127.005 E0.02138
G1 X104.979 Y127.626 E0.02138
M73 P1 R49
G1 X104.639 Y128.189 E0.02061
G1 X104.221 Y128.724 E0.02128
G1 X103.759 Y129.190 E0.02060
G1 X103.227 Y129.612 E0.02127
G1 X102.649 Y129.967 E0.02128
G1 X102.053 Y130.241 E0.02057
G1 X101.290 Y130.479 E0.02507
G1 X100.690 Y130.586 E0.01909
G1 X100.083 Y130.627 E0.01909
G1 X98.498 Y130.625 E0.04970
G1 X97.817 Y130.484 E0.02181
G1 X97.148 Y130.165 E0.02325
G1 X96.575 Y129.804 E0.02124
G1 X96.061 Y129.393 E0.02063
G1 X95.551 Y128.875 E0.02278
G1 X95.083 Y128.261 E0.02421
G1 X94.752 Y127.696 E0.02054
G1 X94.485 Y127.095 E0.02060
G1 X94.269 Y126.402 E0.02276
G1 X94.138 Y125.669 E0.02337
G1 X94.100 Y124.992 E0.02125
G1 X94.138 Y124.334 E0.02067
G1 X94.264 Y123.618 E0.02281
G1 X94.469 Y122.947 E0.02199
G1 X94.752 Y122.303 E0.02204
G1 X95.125 Y121.677 E0.02284
G1 X95.585 Y121.086 E0.02348
G1 X96.045 Y120.622 E0.02050
G1 X96.836 Y120.001 E0.03153
G1 X96.028 Y119.362 E0.03231
G1 X95.537 Y118.859 E0.02204
G1 X95.109 Y118.300 E0.02206
G1 X94.752 Y117.696 E0.02202
G1 X94.476 Y117.073 E0.02136
G1 X94.258 Y116.356 E0.02348
G1 X94.141 Y115.691 E0.02117
G1 X94.100 Y115.038 E0.02054
G1 X94.143 Y114.288 E0.02355
G1 X94.275 Y113.572 E0.02282
G1 X94.485 Y112.903 E0.02197
G1 X94.764 Y112.281 E0.02138
G1 X95.125 Y111.676 E0.02210
G1 X95.571 Y111.102 E0.02277
G1 X96.080 Y110.590 E0.02264
G1 X96.835 Y109.999 E0.03006
G1 X96.060 Y109.392 E0.03085
G1 X95.567 Y108.893 E0.02201
G1 X95.109 Y108.299 E0.02352
G1 X94.742 Y107.676 E0.02268
G1 X94.468 Y107.052 E0.02134
G1 X94.253 Y106.335 E0.02348
G1 X94.143 Y105.712 E0.01984
G1 X94.100 Y105.060 E0.02049
G1 X94.143 Y104.287 E0.02425
G1 X94.270 Y103.594 E0.02211
G1 X94.469 Y102.945 E0.02128
G1 X94.752 Y102.303 E0.02199
G1 X95.111 Y101.697 E0.02209
G1 X95.540 Y101.138 E0.02208
G1 X96.029 Y100.636 E0.02197
G1 X96.835 Y99.999 E0.03222
G1 X96.060 Y99.392 E0.03086
G1 X95.567 Y98.893 E0.02201
G1 X95.109 Y98.299 E0.02352
G1 X94.752 Y97.695 E0.02199
G1 X94.469 Y97.053 E0.02200
G1 X94.259 Y96.359 E0.02274
G1 X94.143 Y95.714 E0.02053
G1 X94.100 Y95.061 E0.02054
G1 X94.138 Y94.335 E0.02279
G1 X94.270 Y93.594 E0.02358
G1 X94.469 Y92.945 E0.02130
G1 X94.752 Y92.303 E0.02199
G1 X95.111 Y91.697 E0.02209
G1 X95.540 Y91.138 E0.02208
G1 X96.029 Y90.636 E0.02197
G1 X96.835 Y89.999 E0.03222
G1 X96.060 Y89.392 E0.03086
G1 X95.567 Y88.893 E0.02201
G1 X95.109 Y88.299 E0.02352
G1 X94.752 Y87.695 E0.02199
G1 X94.469 Y87.053 E0.02200
G1 X94.259 Y86.359 E0.02274
G1 X94.143 Y85.714 E0.02053
G1 X94.100 Y85.061 E0.02054
G1 X94.138 Y84.335 E0.02279
G1 X94.270 Y83.594 E0.02358
G1 X94.469 Y82.945 E0.02130
G1 X94.752 Y82.303 E0.02199
G1 X95.111 Y81.697 E0.02209
G1 X95.540 Y81.138 E0.02208
G1 X96.029 Y80.636 E0.02197
G1 X96.835 Y79.999 E0.03222
G1 X96.060 Y79.392 E0.03086
G1 X95.567 Y78.893 E0.02200
G1 X95.122 Y78.319 E0.02279
G1 X94.762 Y77.715 E0.02203
G1 X94.476 Y77.073 E0.02205
G1 X94.263 Y76.378 E0.02277
G1 X94.140 Y75.690 E0.02192
G1 X94.100 Y74.991 E0.02194
G1 X94.140 Y74.311 E0.02138
G1 X94.264 Y73.617 E0.02209
G1 X94.461 Y72.968 E0.02128
G1 X94.741 Y72.324 E0.02200
G1 X95.151 Y71.639 E0.02503
G1 X95.555 Y71.120 E0.02063
G1 X96.030 Y70.636 E0.02126
G1 X96.555 Y70.210 E0.02120
G1 X97.128 Y69.846 E0.02130
G1 X97.908 Y69.486 E0.02692
G1 X98.554 Y69.371 E0.02058
G1 X100.048 Y69.372 E0.04683
G1 X100.692 Y69.414 E0.02025
G1 X101.313 Y69.526 E0.01980
G1 X102.026 Y69.749 E0.02342
G1 X102.603 Y70.009 E0.01982
G1 X103.146 Y70.332 E0.01983
G1 X103.741 Y70.794 E0.02361
G1 X104.254 Y71.313 E0.02288
G1 X104.652 Y71.831 E0.02050
G1 X104.990 Y72.395 E0.02060
G1 X105.285 Y73.063 E0.02289
G1 X105.480 Y73.715 E0.02135
G1 X105.595 Y74.383 E0.02123
G1 X105.629 Y75.013 E0.01978
G1 X105.592 Y75.643 E0.01981
G1 X105.474 Y76.310 E0.02122
G1 X105.268 Y76.984 E0.02211
G1 X104.978 Y77.628 E0.02215
G1 X104.624 Y78.209 E0.02132
G1 X104.206 Y78.741 E0.02123
G1 X103.741 Y79.206 E0.02060
G1 X103.189 Y79.639 E0.02201
G1 X102.645 Y79.970 E0.01995
M204 S1250
G1 X101.670 Y80.002 F9000.000
M204 S800
G1 F1200.000
G1 X102.438 Y80.348 E0.02638
G1 X102.962 Y80.663 E0.01918
G1 X103.446 Y81.037 E0.01919
G1 X103.932 Y81.518 E0.02143
G1 X104.310 Y81.999 E0.01919
G1 X104.639 Y82.538 E0.01980
G1 X104.919 Y83.160 E0.02139
G1 X105.105 Y83.768 E0.01994
G1 X105.216 Y84.391 E0.01984
G1 X105.252 Y84.999 E0.01910
G1 X105.216 Y85.609 E0.01915
G1 X105.105 Y86.232 E0.01984
G1 X104.911 Y86.861 E0.02065
G1 X104.639 Y87.462 E0.02068
G1 X104.309 Y88.003 E0.01988
G1 X103.931 Y88.483 E0.01916
G1 X103.499 Y88.916 E0.01917
G1 X102.965 Y89.335 E0.02127
G1 X102.462 Y89.639 E0.01845
G1 X101.670 Y90.002 E0.02730
G1 X102.438 Y90.348 E0.02638
G1 X102.962 Y90.663 E0.01918
G1 X103.446 Y91.037 E0.01919
G1 X103.932 Y91.518 E0.02143
G1 X104.310 Y91.999 E0.01919
G1 X104.639 Y92.538 E0.01980
G1 X104.911 Y93.139 E0.02067
G1 X105.100 Y93.747 E0.01997
G1 X105.214 Y94.370 E0.01985
G1 X105.252 Y94.978 E0.01909
G1 X105.216 Y95.609 E0.01983
G1 X105.105 Y96.232 E0.01983
G1 X104.911 Y96.861 E0.02065
G1 X104.639 Y97.462 E0.02068
G1 X104.309 Y98.003 E0.01988
G1 X103.931 Y98.483 E0.01916
G1 X103.499 Y98.916 E0.01917
G1 X102.965 Y99.335 E0.02127
G1 X102.462 Y99.639 E0.01845
G1 X101.670 Y100.003 E0.02732
G1 X102.417 Y100.338 E0.02568
G1 X102.961 Y100.663 E0.01987
G1 X103.482 Y101.068 E0.02069
G1 X103.962 Y101.553 E0.02139
G1 X104.322 Y102.017 E0.01841
G1 X104.639 Y102.538 E0.01913
G1 X104.919 Y103.160 E0.02141
G1 X105.100 Y103.747 E0.01924
G1 X105.214 Y104.370 E0.01985
G1 X105.252 Y104.999 E0.01979
G1 X105.216 Y105.609 E0.01914
G1 X105.111 Y106.210 E0.01913
G1 X104.919 Y106.839 E0.02063
G1 X104.649 Y107.442 E0.02070
G1 X104.334 Y107.966 E0.01920
G1 X103.930 Y108.484 E0.02058
G1 X103.481 Y108.932 E0.01989
G1 X102.983 Y109.322 E0.01983
G1 X102.462 Y109.639 E0.01914
G1 X101.673 Y110.002 E0.02722
G1 X102.437 Y110.348 E0.02632
G1 X102.943 Y110.650 E0.01846
G1 X103.481 Y111.068 E0.02139
G1 X103.946 Y111.535 E0.02066
G1 X104.322 Y112.017 E0.01917
G1 X104.639 Y112.539 E0.01914
G1 X104.911 Y113.139 E0.02066
G1 X105.105 Y113.769 E0.02067
G1 X105.219 Y114.414 E0.02054
G1 X105.252 Y115.022 E0.01909
G1 X105.216 Y115.609 E0.01844
G1 X105.100 Y116.254 E0.02053
G1 X104.911 Y116.861 E0.01996
G1 X104.639 Y117.462 E0.02069
G1 X104.308 Y118.003 E0.01987
G1 X103.915 Y118.500 E0.01987
G1 X103.465 Y118.947 E0.01987
G1 X102.965 Y119.334 E0.01983
G1 X102.462 Y119.639 E0.01846
G1 X101.668 Y120.001 E0.02736
G1 X102.438 Y120.348 E0.02646
G1 X102.962 Y120.663 E0.01918
G1 X103.446 Y121.037 E0.01919
G1 X103.947 Y121.536 E0.02216
G1 X104.322 Y122.017 E0.01912
G1 X104.639 Y122.538 E0.01913
G1 X104.928 Y123.183 E0.02216
G1 X105.111 Y123.791 E0.01991
G1 X105.219 Y124.414 E0.01982
G1 X105.252 Y125.022 E0.01909
G1 X105.211 Y125.653 E0.01983
G1 X105.100 Y126.253 E0.01913
G1 X104.911 Y126.861 E0.01995
G1 X104.650 Y127.442 E0.01997
G1 X104.334 Y127.966 E0.01920
G1 X103.945 Y128.466 E0.01985
G1 X103.499 Y128.916 E0.01988
G1 X103.003 Y129.309 E0.01983
G1 X102.462 Y129.639 E0.01987
G1 X101.907 Y129.893 E0.01914
G1 X101.212 Y130.110 E0.02284
G1 X100.634 Y130.213 E0.01838
G1 X100.065 Y130.251 E0.01790
G1 X98.517 Y130.248 E0.04852
G1 X97.958 Y130.133 E0.01791
G1 X97.338 Y129.839 E0.02149
G1 X96.802 Y129.503 E0.01987
G1 X96.305 Y129.105 E0.01993
G1 X95.828 Y128.619 E0.02135
G1 X95.402 Y128.060 E0.02205
G1 X95.092 Y127.532 E0.01919
G1 X94.834 Y126.953 E0.01990
G1 X94.633 Y126.302 E0.02134
G1 X94.514 Y125.636 E0.02124
G1 X94.477 Y125.002 E0.01988
G1 X94.513 Y124.367 E0.01996
G1 X94.633 Y123.695 E0.02138
G1 X94.826 Y123.068 E0.02057
G1 X95.092 Y122.467 E0.02063
G1 X95.442 Y121.881 E0.02141
G1 X95.861 Y121.343 E0.02136
G1 X96.291 Y120.908 E0.01919
G1 X96.783 Y120.510 E0.01983
G1 X97.596 Y119.999 E0.03012
G1 X96.803 Y119.503 E0.02933
G1 X96.290 Y119.091 E0.02064
G1 X95.829 Y118.620 E0.02066
G1 X95.428 Y118.098 E0.02065
G1 X95.092 Y117.533 E0.02061
G1 X94.826 Y116.931 E0.02063
G1 X94.622 Y116.258 E0.02204
G1 X94.516 Y115.657 E0.01915
G1 X94.477 Y115.047 E0.01916
G1 X94.516 Y114.343 E0.02209
G1 X94.639 Y113.673 E0.02138
G1 X94.834 Y113.047 E0.02055
G1 X95.103 Y112.446 E0.02066
G1 X95.443 Y111.880 E0.02069
G1 X95.847 Y111.360 E0.02065
G1 X96.324 Y110.878 E0.02125
G1 X96.818 Y110.486 E0.01979
G1 X97.596 Y109.999 E0.02877
G1 X96.802 Y109.503 E0.02935
G1 X96.305 Y109.105 E0.01994
G1 X95.844 Y108.637 E0.02063
G1 X95.415 Y108.079 E0.02207
G1 X95.082 Y107.513 E0.02057
G1 X94.826 Y106.932 E0.01993
G1 X94.622 Y106.258 E0.02206
G1 X94.516 Y105.657 E0.01915
G1 X94.477 Y105.047 E0.01916
G1 X94.516 Y104.343 E0.02209
G1 X94.639 Y103.673 E0.02138
G1 X94.826 Y103.067 E0.01987
G1 X95.092 Y102.466 E0.02060
G1 X95.429 Y101.899 E0.02068
G1 X95.831 Y101.377 E0.02067
G1 X96.291 Y100.908 E0.02059
G1 X96.801 Y100.498 E0.02053
G1 X97.597 Y99.999 E0.02944
G1 X96.802 Y99.503 E0.02938
G1 X96.305 Y99.105 E0.01994
G1 X95.844 Y98.637 E0.02063
G1 X95.415 Y98.079 E0.02207
G1 X95.092 Y97.532 E0.01989
G1 X94.826 Y96.932 E0.02059
G1 X94.628 Y96.281 E0.02134
G1 X94.519 Y95.679 E0.01918
G1 X94.477 Y95.047 E0.01985
G1 X94.513 Y94.367 E0.02136
G1 X94.639 Y93.673 E0.02211
G1 X94.826 Y93.067 E0.01988
G1 X95.092 Y92.466 E0.02060
G1 X95.429 Y91.899 E0.02068
G1 X95.831 Y91.377 E0.02067
G1 X96.291 Y90.908 E0.02059
G1 X96.801 Y90.498 E0.02053
G1 X97.597 Y89.999 E0.02944
G1 X96.802 Y89.503 E0.02938
G1 X96.305 Y89.105 E0.01994
G1 X95.844 Y88.637 E0.02063
G1 X95.415 Y88.079 E0.02207
G1 X95.092 Y87.532 E0.01989
G1 X94.826 Y86.932 E0.02059
G1 X94.628 Y86.281 E0.02134
G1 X94.519 Y85.679 E0.01918
G1 X94.477 Y85.047 E0.01985
G1 X94.513 Y84.367 E0.02136
G1 X94.639 Y83.673 E0.02211
G1 X94.826 Y83.067 E0.01988
G1 X95.092 Y82.466 E0.02060
G1 X95.429 Y81.899 E0.02068
G1 X95.831 Y81.377 E0.02067
G1 X96.291 Y80.908 E0.02059
G1 X96.801 Y80.498 E0.02053
G1 X97.597 Y79.999 E0.02944
G1 X96.802 Y79.503 E0.02938
G1 X96.305 Y79.105 E0.01994
G1 X95.844 Y78.637 E0.02063
G1 X95.427 Y78.098 E0.02136
G1 X95.092 Y77.533 E0.02060
G1 X94.825 Y76.931 E0.02064
G1 X94.627 Y76.280 E0.02134
G1 X94.514 Y75.636 E0.02051
G1 X94.477 Y75.003 E0.01988
G1 X94.516 Y74.344 E0.02067
G1 X94.633 Y73.695 E0.02068
G1 X94.818 Y73.088 E0.01989
G1 X95.082 Y72.487 E0.02060
G1 X95.455 Y71.862 E0.02283
G1 X95.846 Y71.361 E0.01992
G1 X96.291 Y70.908 E0.01990
G1 X96.783 Y70.510 E0.01984
G1 X97.319 Y70.171 E0.01989
G1 X98.042 Y69.839 E0.02495
G1 X98.570 Y69.748 E0.01678
G1 X100.042 Y69.749 E0.04616
G1 X100.636 Y69.787 E0.01866
G1 X101.235 Y69.895 E0.01909
G1 X101.882 Y70.097 E0.02124
G1 X102.437 Y70.348 E0.01911
G1 X102.943 Y70.650 E0.01846
G1 X103.482 Y71.068 E0.02140
